X:118
T:Niel Gow's Style
T:Stoile Neill Ghobha
R:Strathspey
C:Captain Simon Fraser
S:Simon Fraser Collection
N:No.149
O:Scottish
M:C
L:1/8
K:D
a|f<B f>e f>B B<a|f<B f>e a>c c<a|f<B f>d e>cd>B|A>F E<A C>A,A,a|
f<B f>e f>B B<a|f<B f>e a>a a<a|f<B f>d e>cd>B|A>F E<A C>A,A,:|
C|B,/F/B DB F<B, B,<D|B,/F/B DB A>A, A,<C|B,/F/B DB F<B d>B|
A>F E<A C>A, A,>C|B,/F/B DB F>B, B,<D|B,/F/B DB A>C, A,<C|
B,/F/B DB F>B d<f|a/^g/f/e/ a>e cAA||

